X: 1
T: Fairy Dance Var.II
C: Nathaniel Gow 1802
O: Hooper/Hunter/Skinner
R: reel
Z: 2019 John Chambers <jc:trillian.mit.edu>
B: BSFC Tune Book XXVI-3
B: BSFC Session Tune Book 2016 p.57
S: Anne Hooper
M: C|
L: 1/8
%%slurgraces yes
%%graceslurs yes
K: D
"A"|:\
"D"(3(DAf) (3(fAD) (3(DAf) (3(fAD) | "D"(3(DAf) (3(fAD) "A7"(A,/E/c/a/) (a/c/E/A,/) |\
"D"(3(DAf) (3(fAD) "G"Bged |[1 "A7"cABc "D"d2d2 :|
[2 "A7"cABc defg \
"B"[|\
"D"afdf "Bm"gaba | "Em"gfed "A7"ceag | "D"fedc "G"Bged |
"A7"cABc defg |\
"D"agfe "B7"^dfba | "Em"gfe=d "A7"ceag |\
"D"[f2A2D2]z2 "G"[g2B2D2]z2 | "A7"[c2E2A,2]Hz2 "D"H[d4F4A,4] |]
